X:1
T:The Star Above The Garter
R:slide
M:12/8
L:1/8
K:G
|:~d2B BAG ~A2A ABA|G2E ~c2B BAG ABc|
|~d2B BAG ~A2A ABA|G2E ~c2E DED DBc:|
|:~d2e f2a ~g2e d2B|GAB ~c2B BAG ABc|
|~d2e f2a ~g2e d2B|GAB ~c2E DED DBc:|